X:437
T: "Der Daeumling"
N: Z1117
O: Europa, Mitteleuropa, Deutschland, Hessen
R: Romanze, Ballade
M: 2/4
L: 1/16
K: C
G,2 | C4B,2A,2 | G,4C4 | E,4F,4 | G,4
C2B,2 | A,2B,2C4 | D4C2B,2 | C4
G,4 | C4B,2A,2 | G,4C4 | E,4F,4 | G,4
C2B,2 | A,2B,2C4 | D4C2B,2 | C4
C2D2 | E4C4 | F4E4 | D3CB,2C2 | D4
C2D2 | E4C4 | F4E4 | D4z2
G,2 | C4B,2A,2 | G,4C4 | E,4F,4 | G,4
C2B,2 | A,2B,2C2E2 | D4C2B,2 | C4z2

